X:1
T:MacGregor Murray in the Celtic Chair
T:MacGregor Murray in the Celtic Chair
T:Niel Gow (1727-1807)
C:Niel Gow (1727-1807)
L:1/8
M:4/4
K:D
V:1 treble 
V:1
 A2 DF/G/ ADFA | G>=C C>E{F} (G2 B2) | A2 DF/G/ ADFA | dD DF (A2 .f2) :| d/e/f/g/ a>g fd f/g/a/f/ | %5
 g=cce g2 a/g/f/e/ | d/e/f/g/ a/b/a/g/ fd f/g/a/f/ | a/g/f/e/ d/e/f/g/ a2 a/g/f/e/ | %8
 d/e/f/g/ a/b/a/f/ | g/a/g/e/ f/g/f/d/ | e/=f/g/e/ =c/d/e/f/ g/f/e/f/ g/^f/g/e/ | %11
 f/g/a/f/ e/f/g/e/ d/e/f/d/ c/d/e/c/ | dD DF (A2 .f2) || %13

